images_sukapura_svg/cmd/lc_beziermove.svg

<svg viewBox="0 0 24 24" xmlns="http://www.w3.org/2000/svg" xmlns:xlink="http://www.w3.org/1999/xlink"><linearGradient id="a" gradientUnits="userSpaceOnUse" x1="-19.355436" x2="-18.6299" y1="16.707636" y2="1.656788"><stop offset="0" stop-color="#0040dd"/><stop offset="1" stop-color="#0a84ff"/></linearGradient><linearGradient id="b" gradientTransform="matrix(.26458333 0 0 .26458333 101.6 307.58333)" gradientUnits="userSpaceOnUse" x1="18.5" x2="18.5" y1="23" y2="14.5"><stop offset="0" stop-color="#d70015"/><stop offset="1" stop-color="#ff453a"/></linearGradient><linearGradient id="c" gradientUnits="userSpaceOnUse" x1="3.366274" x2="3.346089" xlink:href="#b" y1="21.866274" y2="19.277544"/><linearGradient id="d" gradientUnits="userSpaceOnUse" x1="19.510092" x2="19.489908" xlink:href="#b" y1="21.794365" y2="19.133726"/><linearGradient id="e" gradientUnits="userSpaceOnUse" x1="19.582001" x2="20" xlink:href="#b" y1="6.082002" y2="4"/><linearGradient id="f" gradientUnits="userSpaceOnUse" x1="2.646447" x2="20.353554" xlink:href="#a" y1="12.5" y2="12.5"/><linearGradient id="g" gradientUnits="userSpaceOnUse" x1="19.5" x2="19.5" xlink:href="#a" y1="17" y2="9"/><linearGradient id="h" gradientUnits="userSpaceOnUse" x1="4" x2="19" xlink:href="#a" y1="20.5" y2="20.5"/><path d="m3 21 17-17" fill="none" opacity=".5" stroke="url(#f)"/><path d="m19.5 9c-.277 0-.5.223-.5.5v3.5h-2.5a.50055335.50055335 0 0 0 -.353516.855469l3.009766 2.992187a.50055335.50055335 0 0 0 .707031-.001953l2.990235-2.992187a.50055335.50055335 0 0 0 -.353516-.853516h-2.5v-3.5c0-.277-.223-.5-.5-.5z" fill="url(#g)"/><g fill="#808080"><path d="m18 3h3v3h-3z" fill="url(#e)" opacity=".5"/><path d="m4 20h15v1h-15z" fill="url(#h)"/><path d="m2 19h3v3h-3z" fill="url(#c)"/><path d="m18 19h3v3h-3z" fill="url(#d)"/></g></svg>

<?xml version="1.0" encoding="UTF-8" standalone="no"?>
<svg
   xmlns:dc="http://purl.org/dc/elements/1.1/"
   xmlns:cc="http://creativecommons.org/ns#"
   xmlns:rdf="http://www.w3.org/1999/02/22-rdf-syntax-ns#"
   xmlns:svg="http://www.w3.org/2000/svg"
   xmlns="http://www.w3.org/2000/svg"
   xmlns:xlink="http://www.w3.org/1999/xlink"
   xmlns:sodipodi="http://sodipodi.sourceforge.net/DTD/sodipodi-0.dtd"
   xmlns:inkscape="http://www.inkscape.org/namespaces/inkscape"
   viewBox="0 0 24 24"
   version="1.1"
   id="svg18"
   sodipodi:docname="lc_beziermove.svg"
   inkscape:version="0.92.3 (unknown)">
  <metadata
     id="metadata24">
    <rdf:RDF>
      <cc:Work
         rdf:about="">
        <dc:format>image/svg+xml</dc:format>
        <dc:type
           rdf:resource="http://purl.org/dc/dcmitype/StillImage" />
        <dc:title></dc:title>
      </cc:Work>
    </rdf:RDF>
  </metadata>
  <defs
     id="defs22">
    <linearGradient
       id="g"
       gradientUnits="userSpaceOnUse"
       x1="5"
       x2="5"
       xlink:href="#a"
       y1="5"
       y2="4" />
    <linearGradient
       id="a"
       gradientUnits="userSpaceOnUse"
       x1="-19.355436"
       x2="-18.6299"
       y1="16.707636"
       y2="1.656788">
      <stop
         offset="0"
         stop-color="#0040dd"
         id="stop2" />
      <stop
         offset="1"
         stop-color="#0a84ff"
         id="stop4" />
    </linearGradient>
    <linearGradient
       id="f"
       gradientUnits="userSpaceOnUse"
       x1="4"
       x2="4"
       xlink:href="#a"
       y1="21"
       y2="6" />
    <linearGradient
       id="e"
       gradientUnits="userSpaceOnUse"
       x1="3.4381831"
       x2="3.7056351"
       xlink:href="#b"
       y1="21.722456"
       y2="19.133726" />
    <linearGradient
       id="b"
       gradientTransform="matrix(0.26458333,0,0,0.26458333,101.6,307.58333)"
       gradientUnits="userSpaceOnUse"
       x1="18.5"
       x2="18.5"
       y1="23"
       y2="14.5">
      <stop
         offset="0"
         stop-color="#d70015"
         id="stop7" />
      <stop
         offset="1"
         stop-color="#ff453a"
         id="stop9" />
    </linearGradient>
    <linearGradient
       id="d"
       gradientUnits="userSpaceOnUse"
       x1="19.510092"
       x2="19.489908"
       xlink:href="#b"
       y1="6.0100918"
       y2="3.2056351" />
    <linearGradient
       inkscape:collect="always"
       xlink:href="#b"
       id="linearGradient880"
       x1="3.3662741"
       y1="21.866274"
       x2="3.3460891"
       y2="19.277544"
       gradientUnits="userSpaceOnUse" />
    <linearGradient
       inkscape:collect="always"
       xlink:href="#b"
       id="linearGradient882"
       x1="19.510092"
       y1="21.794365"
       x2="19.489908"
       y2="19.133726"
       gradientUnits="userSpaceOnUse" />
    <linearGradient
       inkscape:collect="always"
       xlink:href="#b"
       id="linearGradient884"
       x1="19.582001"
       y1="6.0820017"
       x2="20"
       y2="4"
       gradientUnits="userSpaceOnUse" />
    <linearGradient
       inkscape:collect="always"
       xlink:href="#a"
       id="linearGradient892"
       x1="2.6464467"
       y1="12.5"
       x2="20.353554"
       y2="12.5"
       gradientUnits="userSpaceOnUse" />
    <linearGradient
       inkscape:collect="always"
       xlink:href="#a"
       id="linearGradient908"
       x1="19.5"
       y1="17"
       x2="19.5"
       y2="9"
       gradientUnits="userSpaceOnUse" />
    <linearGradient
       inkscape:collect="always"
       xlink:href="#a"
       id="linearGradient916"
       x1="4"
       y1="20.5"
       x2="19"
       y2="20.5"
       gradientUnits="userSpaceOnUse" />
  </defs>
  <sodipodi:namedview
     pagecolor="#ffffff"
     bordercolor="#666666"
     borderopacity="1"
     objecttolerance="10"
     gridtolerance="10"
     guidetolerance="10"
     inkscape:pageopacity="0"
     inkscape:pageshadow="2"
     inkscape:window-width="1366"
     inkscape:window-height="706"
     id="namedview20"
     showgrid="false"
     inkscape:snap-global="true"
     inkscape:zoom="2.8284271"
     inkscape:cx="-53.997884"
     inkscape:cy="-10.190788"
     inkscape:window-x="0"
     inkscape:window-y="0"
     inkscape:window-maximized="1"
     inkscape:current-layer="g16">
    <inkscape:grid
       type="xygrid"
       id="grid894" />
  </sodipodi:namedview>
  <path
     d="m3 21 17-17"
     fill="none"
     stroke="#4d82b8"
     id="path2"
     style="stroke:url(#linearGradient892);opacity:0.5" />
  <path
     style="fill:url(#linearGradient908);fill-opacity:1;stroke:none;stroke-linecap:round;stroke-linejoin:round"
     d="M 19.5 9 C 19.223 9 19 9.223 19 9.5 L 19 13 L 16.5 13 A 0.50055335 0.50055335 0 0 0 16.146484 13.855469 L 19.15625 16.847656 A 0.50055335 0.50055335 0 0 0 19.863281 16.845703 L 22.853516 13.853516 A 0.50055335 0.50055335 0 0 0 22.5 13 L 20 13 L 20 9.5 C 20 9.223 19.777 9 19.5 9 z "
     id="path4" />
  <g
     fill="#808080"
     id="g16">
    <path
       d="m18 3h3v3h-3z"
       id="path10"
       style="fill-opacity:1;fill:url(#linearGradient884);stroke:none;opacity:0.5" />
    <path
       d="m4 20h15v1h-15z"
       id="path14"
       style="stroke:none;fill-opacity:1.0;fill:url(#linearGradient916)" />
    <path
       d="m2 19h3v3h-3z"
       id="path8"
       style="fill-opacity:1;fill:url(#linearGradient880)" />
    <path
       d="m18 19h3v3h-3z"
       id="path12"
       style="fill-opacity:1;fill:url(#linearGradient882)" />
  </g>
</svg>
